X: 43588
T: Young Terrance McDonough
R: waltz
M: 3/4
K: Eminor
(ED)|B,2 E2 (F^D)|E4 (EF)|G2 B2 (AG)|A4 (AA)|
B2 e2 (ed)|B2 d2 (BA)|G2 F2 E2|D4 (EF)|
G2 F2 E2|E2 e2 (de)|f2 d2 (de)|d4 BA|G2 F2 E2|
^D2 F2 (GA)|B2 B,2 (EF)|E4 (ED)|B,2 E2 E2|
E2 E2 (ED)|B,2 G2 G2|G4 FE|D2 d2 d2|
(ed) (cB) (AG)|F2 (EF)(GA)|B4 (BA)|G2 G2 (AG)|
F2 F2 (EF)|G2 (GA) (B,^C)|D4 (BA)|G2 G2 G2|
F2 G2 A2|B2 B,2 (EF)|E4||

